icons/desktop/16/svg/folder-arrow-down-16.svg

<svg width="16" height="16" viewBox="0 0 16 16" fill="none" xmlns="http://www.w3.org/2000/svg">
<path d="M5.30859 1.00049C6.08638 1.00049 6.83156 1.33196 7.35254 1.90967L7.5 2.07373V4.29443C7.48311 4.27755 7.45936 4.27018 7.44336 4.25244L6.23828 2.91455C6.00128 2.65155 5.66259 2.50049 5.30859 2.50049H2.75C2.061 2.50049 1.5 3.06149 1.5 3.75049V11.9751C1.5 12.619 1.98692 13.1561 2.63184 13.2231C6.18671 13.5921 9.82675 13.5922 13.3906 13.2202C14.0226 13.1542 14.5 12.6191 14.5 11.9751V6.0249C14.4999 5.38104 14.013 4.84391 13.3682 4.77686C13.0812 4.74686 12.789 4.73545 12.5 4.71045V3.20459C12.84 3.23359 13.1835 3.24967 13.5225 3.28467C14.9352 3.43085 15.9999 4.60914 16 6.0249V11.9751C16 13.3901 14.9439 14.5674 13.5449 14.7124C11.71 14.9034 9.83796 15.0005 8 15.0005C6.162 15.0005 4.30354 14.9043 2.47754 14.7153C1.06476 14.5691 0 13.391 0 11.9751V3.75049C0 2.23349 1.233 1.00049 2.75 1.00049H5.30859Z" fill="black"/>
<path d="M10 0.0151367C10.4142 0.0151367 10.75 0.350923 10.75 0.765137V7.52881H12.5283C12.9481 7.52907 13.1583 8.03755 12.8613 8.33447L10.333 10.8618C10.149 11.0458 9.85099 11.0458 9.66699 10.8618L7.13867 8.33447C6.84175 8.03855 7.05189 7.53004 7.47168 7.52979H9.25V0.765137C9.25 0.350923 9.58579 0.0151367 10 0.0151367Z" fill="black"/>
</svg>

<!-- This Source Code Form is subject to the terms of the Mozilla Public
   - License, v. 2.0. If a copy of the MPL was not distributed with this
   - file, You can obtain one at http://mozilla.org/MPL/2.0/. -->
<svg xmlns="http://www.w3.org/2000/svg" width="16" height="16" fill="context-fill" fill-opacity="context-fill-opacity" viewBox="0 0 16 16">
    <path d="M5.309 1c.777 0 1.523.332 2.044.91l.147.164v2.22c-.017-.016-.04-.024-.057-.042L6.238 2.915a1.25 1.25 0 0 0-.93-.415H2.75c-.689 0-1.25.561-1.25 1.25v8.225c0 .644.487 1.181 1.132 1.248 3.555.37 7.195.37 10.759-.003a1.243 1.243 0 0 0 1.109-1.245v-5.95c0-.644-.487-1.181-1.132-1.248-.287-.03-.579-.042-.868-.067V3.205c.34.029.684.045 1.023.08A2.75 2.75 0 0 1 16 6.025v5.95a2.74 2.74 0 0 1-2.455 2.737A54 54 0 0 1 8 15.001c-1.838 0-3.696-.097-5.522-.286A2.75 2.75 0 0 1 0 11.975V3.75A2.75 2.75 0 0 1 2.75 1z" />
    <path d="M10 .015a.75.75 0 0 1 .75.75V7.53h1.778c.42 0 .63.509.333.805l-2.528 2.528a.47.47 0 0 1-.666 0L7.139 8.334a.471.471 0 0 1 .333-.804H9.25V.765a.75.75 0 0 1 .75-.75" />
</svg>
